Newaita-dark/actions/symbolic/fcitx-vk-inactive-symbolic.svg

<svg height="16" viewBox="0 0 16 16" width="16" xmlns="http://www.w3.org/2000/svg"><path d="m1.652344 2.769531c-.546875 0-.992188.445313-.992188.992188v8.933593c0 .546876.445313.992188.992188.992188h12.570312c.550782 0 .992188-.445312.992188-.992188v-8.933593c0-.546875-.441406-.992188-.992188-.992188zm.664062 1.324219h1.320313c.367187 0 .664062.296875.664062.660156v.664063c0 .367187-.296875.660156-.664062.660156h-1.320313c-.367187 0-.664062-.292969-.664062-.660156v-.664063c0-.363281.296875-.660156.664062-.660156zm3.304688 0h1.324218c.367188 0 .664063.296875.664063.660156v.664063c0 .367187-.296875.660156-.664063.660156h-1.324218c-.363282 0-.660156-.292969-.660156-.660156v-.664063c0-.363281.296874-.660156.660156-.660156zm3.308594 0h1.324218c.367188 0 .660156.296875.660156.660156v.664063c0 .367187-.292968.660156-.660156.660156h-1.324218c-.367188 0-.660157-.292969-.660157-.660156v-.664063c0-.363281.292969-.660156.660157-.660156zm3.308593 0h1.324219c.363281 0 .660156.296875.660156.660156v.664063c0 .367187-.296875.660156-.660156.660156h-1.324219c-.367187 0-.660156-.292969-.660156-.660156v-.664063c0-.363281.292969-.660156.660156-.660156zm-9.921875 2.644531h1.320313c.367187 0 .664062.296875.664062.664063v.660156c0 .367188-.296875.664062-.664062.664062h-1.320313c-.367187 0-.664062-.296874-.664062-.664062v-.660156c0-.367188.296875-.664063.664062-.664063zm3.304688 0h1.324218c.367188 0 .664063.296875.664063.664063v.660156c0 .367188-.296875.664062-.664063.664062h-1.324218c-.363282 0-.660156-.296874-.660156-.664062v-.660156c0-.367188.296874-.664063.660156-.664063zm3.308594 0h1.324218c.367188 0 .660156.296875.660156.664063v.660156c0 .367188-.292968.664062-.660156.664062h-1.324218c-.367188 0-.660157-.296874-.660157-.664062v-.660156c0-.367188.292969-.664063.660157-.664063zm3.308593 0h1.324219c.363281 0 .660156.296875.660156.664063v.660156c0 .367188-.296875.664062-.660156.664062h-1.324219c-.367187 0-.660156-.296874-.660156-.664062v-.660156c0-.367188.292969-.664063.660156-.664063zm-9.921875 2.648438h1.320313c.367187 0 .664062.292969.664062.660156v.664063c0 .363281-.296875.660156-.664062.660156h-1.320313c-.367187 0-.664062-.296875-.664062-.660156v-.664063c0-.367187.296875-.660156.664062-.660156zm3.304688 0h4.632812c.367188 0 .660156.292969.660156.660156v.664063c0 .363281-.292968.660156-.660156.660156h-4.632812c-.363282 0-.660156-.296875-.660156-.660156v-.664063c0-.367187.296874-.660156.660156-.660156zm6.617187 0h1.324219c.363281 0 .660156.292969.660156.660156v.664063c0 .363281-.296875.660156-.660156.660156h-1.324219c-.367187 0-.660156-.296875-.660156-.660156v-.664063c0-.367187.292969-.660156.660156-.660156zm0 0" fill="#e0e0e0" fill-opacity=".392157"/></svg>

<?xml version="1.0" encoding="UTF-8"?>
<svg xmlns="http://www.w3.org/2000/svg" xmlns:xlink="http://www.w3.org/1999/xlink" width="16px" height="16px" viewBox="0 0 16 16" version="1.1">
<g id="surface1">
<path style=" stroke:none;fill-rule:nonzero;fill:rgb(87.843138%,87.843138%,87.843138%);fill-opacity:0.392157;" d="M 1.652344 2.769531 C 1.105469 2.769531 0.660156 3.214844 0.660156 3.761719 L 0.660156 12.695312 C 0.660156 13.242188 1.105469 13.6875 1.652344 13.6875 L 14.222656 13.6875 C 14.773438 13.6875 15.214844 13.242188 15.214844 12.695312 L 15.214844 3.761719 C 15.214844 3.214844 14.773438 2.769531 14.222656 2.769531 Z M 2.316406 4.09375 L 3.636719 4.09375 C 4.003906 4.09375 4.300781 4.390625 4.300781 4.753906 L 4.300781 5.417969 C 4.300781 5.785156 4.003906 6.078125 3.636719 6.078125 L 2.316406 6.078125 C 1.949219 6.078125 1.652344 5.785156 1.652344 5.417969 L 1.652344 4.753906 C 1.652344 4.390625 1.949219 4.09375 2.316406 4.09375 Z M 5.621094 4.09375 L 6.945312 4.09375 C 7.3125 4.09375 7.609375 4.390625 7.609375 4.753906 L 7.609375 5.417969 C 7.609375 5.785156 7.3125 6.078125 6.945312 6.078125 L 5.621094 6.078125 C 5.257812 6.078125 4.960938 5.785156 4.960938 5.417969 L 4.960938 4.753906 C 4.960938 4.390625 5.257812 4.09375 5.621094 4.09375 Z M 8.929688 4.09375 L 10.253906 4.09375 C 10.621094 4.09375 10.914062 4.390625 10.914062 4.753906 L 10.914062 5.417969 C 10.914062 5.785156 10.621094 6.078125 10.253906 6.078125 L 8.929688 6.078125 C 8.5625 6.078125 8.269531 5.785156 8.269531 5.417969 L 8.269531 4.753906 C 8.269531 4.390625 8.5625 4.09375 8.929688 4.09375 Z M 12.238281 4.09375 L 13.5625 4.09375 C 13.925781 4.09375 14.222656 4.390625 14.222656 4.753906 L 14.222656 5.417969 C 14.222656 5.785156 13.925781 6.078125 13.5625 6.078125 L 12.238281 6.078125 C 11.871094 6.078125 11.578125 5.785156 11.578125 5.417969 L 11.578125 4.753906 C 11.578125 4.390625 11.871094 4.09375 12.238281 4.09375 Z M 2.316406 6.738281 L 3.636719 6.738281 C 4.003906 6.738281 4.300781 7.035156 4.300781 7.402344 L 4.300781 8.0625 C 4.300781 8.429688 4.003906 8.726562 3.636719 8.726562 L 2.316406 8.726562 C 1.949219 8.726562 1.652344 8.429688 1.652344 8.0625 L 1.652344 7.402344 C 1.652344 7.035156 1.949219 6.738281 2.316406 6.738281 Z M 5.621094 6.738281 L 6.945312 6.738281 C 7.3125 6.738281 7.609375 7.035156 7.609375 7.402344 L 7.609375 8.0625 C 7.609375 8.429688 7.3125 8.726562 6.945312 8.726562 L 5.621094 8.726562 C 5.257812 8.726562 4.960938 8.429688 4.960938 8.0625 L 4.960938 7.402344 C 4.960938 7.035156 5.257812 6.738281 5.621094 6.738281 Z M 8.929688 6.738281 L 10.253906 6.738281 C 10.621094 6.738281 10.914062 7.035156 10.914062 7.402344 L 10.914062 8.0625 C 10.914062 8.429688 10.621094 8.726562 10.253906 8.726562 L 8.929688 8.726562 C 8.5625 8.726562 8.269531 8.429688 8.269531 8.0625 L 8.269531 7.402344 C 8.269531 7.035156 8.5625 6.738281 8.929688 6.738281 Z M 12.238281 6.738281 L 13.5625 6.738281 C 13.925781 6.738281 14.222656 7.035156 14.222656 7.402344 L 14.222656 8.0625 C 14.222656 8.429688 13.925781 8.726562 13.5625 8.726562 L 12.238281 8.726562 C 11.871094 8.726562 11.578125 8.429688 11.578125 8.0625 L 11.578125 7.402344 C 11.578125 7.035156 11.871094 6.738281 12.238281 6.738281 Z M 2.316406 9.386719 L 3.636719 9.386719 C 4.003906 9.386719 4.300781 9.679688 4.300781 10.046875 L 4.300781 10.710938 C 4.300781 11.074219 4.003906 11.371094 3.636719 11.371094 L 2.316406 11.371094 C 1.949219 11.371094 1.652344 11.074219 1.652344 10.710938 L 1.652344 10.046875 C 1.652344 9.679688 1.949219 9.386719 2.316406 9.386719 Z M 5.621094 9.386719 L 10.253906 9.386719 C 10.621094 9.386719 10.914062 9.679688 10.914062 10.046875 L 10.914062 10.710938 C 10.914062 11.074219 10.621094 11.371094 10.253906 11.371094 L 5.621094 11.371094 C 5.257812 11.371094 4.960938 11.074219 4.960938 10.710938 L 4.960938 10.046875 C 4.960938 9.679688 5.257812 9.386719 5.621094 9.386719 Z M 12.238281 9.386719 L 13.5625 9.386719 C 13.925781 9.386719 14.222656 9.679688 14.222656 10.046875 L 14.222656 10.710938 C 14.222656 11.074219 13.925781 11.371094 13.5625 11.371094 L 12.238281 11.371094 C 11.871094 11.371094 11.578125 11.074219 11.578125 10.710938 L 11.578125 10.046875 C 11.578125 9.679688 11.871094 9.386719 12.238281 9.386719 Z M 12.238281 9.386719 "/>
</g>
</svg>
